X: 20
T: The Monks of the Screw
M: 6/8
L: 1/8
B: "O'Neill's 20"
N: "Moderate" "collected by F. O'Neill"
Z: "Transcribed by Norbert Paap, norbertp@bdu.uva.nl"
K:D
d | d2z/2A/2 A2z/2G/2 | F D3zA | AGF GAc | d3-d2z/2d/2 |
dAA A<AG | F D3zA | AGF GAc | d3-d2 ||
d/2-e/2 | fef g>(fe/2d/2) | c G3zf | fef g>fe | d3-d(3(e/2f/2g/2) |
a>gf gfe | f A3zA | A>GF GAc | d3-d2 ||


